resources/svg/double-caret-right-circle.svg

<svg width="15" height="15" viewBox="0 0 15 15" fill="none" xmlns="http://www.w3.org/2000/svg">
<path fill-rule="evenodd" clip-rule="evenodd" d="M0 7.5C0 3.35786 3.35786 0 7.5 0C11.6421 0 15 3.35786 15 7.5C15 11.6421 11.6421 15 7.5 15C3.35786 15 0 11.6421 0 7.5ZM5.50008 4.79285L8.20718 7.49995L5.50008 10.2071L4.79297 9.49995L6.79297 7.49995L4.79297 5.49995L5.50008 4.79285ZM8.50008 4.79285L11.2072 7.49995L8.50008 10.2071L7.79297 9.49995L9.79297 7.49995L7.79297 5.49995L8.50008 4.79285Z" fill="black"/>
</svg>

<svg viewBox="0 0 15 15" fill="none" xmlns="http://www.w3.org/2000/svg" fill="currentColor"><path fill-rule="evenodd" clip-rule="evenodd" d="M0 7.5a7.5 7.5 0 1115 0 7.5 7.5 0 01-15 0zm5.5-2.707L8.207 7.5 5.5 10.207 4.793 9.5l2-2-2-2 .707-.707zm3 0L11.207 7.5 8.5 10.207 7.793 9.5l2-2-2-2 .707-.707z" fill="currentColor"/></svg>
